src/main/resources/icons/SpringApiIcons/icons/SpringWeb.svg

<svg xmlns="http://www.w3.org/2000/svg" width="16" height="16" viewBox="0 0 16 16">
  <g fill="none" fill-rule="evenodd">
    <path fill="#62B543" fill-opacity=".7" d="M7.37087489,14.2967378 C6.32327973,14.2738814 5.31186673,14.2154967 4.44717245,14.2546012 C4.44717245,14.2546012 3.94283089,14.2832335 3.43439732,14.3670851 C3.43439732,14.3670851 3.62672229,14.2852786 3.87224354,14.2004045 C5.27088302,13.7169838 6.15420198,13.5036188 6.97494752,13.2053272 C7.06621256,13.5873236 7.19994023,13.9528758 7.37087489,14.2967378 Z M12.9371161,6.9119415 C12.9837575,6.73591454 13.0228046,6.55905798 13.0537151,6.3817562 C12.9944223,6.55537699 12.926877,6.72734321 12.8517171,6.89735464 C12.5791651,6.85314598 12.2994774,6.83016418 12.0144122,6.83016418 C9.15322665,6.83016418 6.83377749,9.14535858 6.83377749,12.0012956 C6.83377749,12.0378671 6.83415783,12.0743499 6.83491478,12.1107403 C5.14968827,12.6797728 2.50243959,13.2065155 2.50243959,13.2074791 L2.38172498,13.1430565 C0.354128707,12.1572892 0.297863422,7.76939754 3.97863607,6.35516911 C5.59293826,5.73446293 7.13665308,6.07600472 8.88087692,5.65981457 C10.7417233,5.21805992 12.8961723,3.81917019 13.7718647,2 C14.3157294,3.61111681 14.9197057,5.72514629 14.9926635,7.7695554 C14.3895035,7.34583487 13.6916758,7.04734157 12.9371161,6.9119415 Z"/>
    <path fill="#9AA7B0" d="M12,8 C9.792,8 8,9.792 8,12 C8,14.208 9.792,16 12,16 C14.208,16 16,14.208 16,12 C16,9.792 14.208,8 12,8 Z M11.6,15.172 C10.02,14.976 8.8,13.632 8.8,12 C8.8,11.752 8.832,11.516 8.884,11.284 L10.8,13.2 L10.8,13.6 C10.8,14.04 11.16,14.4 11.6,14.4 L11.6,15.172 Z M14.36,14.156 C14.256,13.832 13.96,13.6 13.6,13.6 L13.2,13.6 L13.2,12.4 C13.2,12.18 13.02,12 12.8,12 L10.4,12 L10.4,11.2 L11.2,11.2 C11.42,11.2 11.6,11.02 11.6,10.8 L11.6,10 L12.4,10 C12.84,10 13.2,9.64 13.2,9.2 L13.2,9.036 C14.372,9.512 15.2,10.66 15.2,12 C15.2,12.832 14.88,13.588 14.36,14.156 Z"/>
  </g>
</svg>

<svg xmlns="http://www.w3.org/2000/svg" width="16" height="16" viewBox="0 0 16 16"><rect id="frame" width="16" height="16" fill="none"/><g fill="none" fill-rule="evenodd"><path fill="#62B543" fill-opacity=".7" d="M7.37 14.297c-1.047-.023-2.058-.082-2.923-.042 0 0-.504.028-1.013.112 0 0 .193-.082.438-.167 1.399-.483 2.282-.696 3.103-.995.091.382.225.748.396 1.092zm5.567-7.385c.047-.176.086-.353.117-.53-.06.173-.127.345-.202.515a5.176 5.176 0 0 0-6.017 5.213c-1.685.57-4.333 1.097-4.333 1.097l-.12-.064C.354 12.157.298 7.77 3.979 6.355c1.614-.62 3.158-.279 4.902-.695 1.86-.442 4.015-1.84 4.89-3.66.545 1.611 1.149 3.725 1.222 5.77a5.158 5.158 0 0 0-2.056-.858z"/><path fill="#9AA7B0" d="M12 8c-2.208 0-4 1.792-4 4s1.792 4 4 4 4-1.792 4-4-1.792-4-4-4zm-.4 7.172A3.195 3.195 0 0 1 8.8 12c0-.248.032-.484.084-.716L10.8 13.2v.4c0 .44.36.8.8.8v.772zm2.76-1.016a.794.794 0 0 0-.76-.556h-.4v-1.2c0-.22-.18-.4-.4-.4h-2.4v-.8h.8c.22 0 .4-.18.4-.4V10h.8c.44 0 .8-.36.8-.8v-.164c1.172.476 2 1.624 2 2.964 0 .832-.32 1.588-.84 2.156z"/></g></svg>
